Origami/24x24/apps/davmail.svg

<svg width="24" height="24" version="1" xmlns="http://www.w3.org/2000/svg">
 <path d="m12 2c-5.5400001 0-10 4.4599999-10 10 0 5.54 4.4599999 10 10 10 5.54 0 10-4.46 10-10 0-5.5400001-4.46-10-10-10z" style="fill:#efbd2f"/>
 <path d="m12 2c-5.5395076 0-9.9991111 4.4599999-9.9991111 10 0 0.084-2e-3 0.1665 0 0.25 0.1321882-5.4230001 4.543596-9.75 9.9991111-9.75 5.455515 0 9.867123 4.3269999 9.999111 9.75 2e-3 -0.0835 0-0.166 0-0.25 0-5.5400001-4.459604-10-9.999111-10z" style="fill:#ffffff;opacity:.2"/>
 <path d="m2.00585 12.25c-0.00205 0.0835-0.00585 0.166-0.00585 0.25 0 5.54 4.4599999 10 10 10 5.54 0 10-4.46 10-10 0-0.084-4e-3 -0.1665-6e-3 -0.25-0.132 5.423-4.538 9.75-9.994 9.75-5.4560001 0-9.862-4.327-9.994-9.75z" style="opacity:.2"/>
 <path d="m10.5 6.4999999-1.4999392 5.0000001h1.9999392l-1.5000002 4h1.5000002l-1.4624702 5 4.9624702-6h-1.75l2.25-4h-2.5l2.499938-4.0000001z" style="opacity:.2"/>
 <path d="M 10.5,5.9999999 9.0000608,11 11,11 9.4999998,15 11,15 9.5375298,20 14.5,14 12.75,14 15,9.9999998 l -2.5,0 2.499938,-3.9999999 z" style="fill:#ffffff"/>
</svg>

<svg xmlns="http://www.w3.org/2000/svg" width="24" height="24" version="1">
 <path style="fill:#efbd2f" d="M 12,2 C 6.4599999,2 2,6.4599999 2,12 2,17.54 6.4599999,22 12,22 17.54,22 22,17.54 22,12 22,6.4599999 17.54,2 12,2 Z"/>
 <path style="opacity:0.2;fill:#ffffff" d="M 12,2 C 6.4604924,2 2.0008889,6.4599999 2.0008889,12 c 0,0.084 -0.002,0.1665 0,0.25 C 2.1330771,6.8269999 6.5444849,2.5 12,2.5 c 5.455515,0 9.867123,4.3269999 9.999111,9.75 0.002,-0.0835 0,-0.166 0,-0.25 C 21.999111,6.4599999 17.539507,2 12,2 Z"/>
 <path style="opacity:0.2" d="M 2.00585,12.25 C 2.0038,12.3335 2,12.416 2,12.5 c 0,5.54 4.4599999,10 10,10 5.54,0 10,-4.46 10,-10 0,-0.084 -0.004,-0.1665 -0.006,-0.25 C 21.862,17.673 17.456,22 12,22 6.5439999,22 2.138,17.673 2.006,12.25 Z"/>
 <path style="opacity:0.2" d="M 10.5,6.4999999 9.0000608,11.5 11,11.5 9.4999998,15.5 11,15.5 9.5375298,20.5 14.5,14.5 l -1.75,0 2.25,-4 -2.5,0 2.499938,-4.0000001 z"/>
 <path style="fill:#ffffff" d="M 10.5,5.9999999 9.0000608,11 11,11 9.4999998,15 11,15 9.5375298,20 14.5,14 12.75,14 15,9.9999998 l -2.5,0 2.499938,-3.9999999 z"/>
</svg>
